X: 1
T: The Woodcock
R: jig
M: 6/8
L: 1/8
K: Gmaj
B|:dBG cGE|DBD ~G3|~B3 dcB|dcB ABc|
dBG cGE|DBD ~G3|~B3 ded|1 ABA ~G3:|2 ABA G2B||
dBG ecA|~f3 g2d|e/f/ge dBG|dcB ABc|
dBG ecA|~f3 g2d|e/f/ge dBG|ABA GBc|
dBG ecA|~f3 g2g|e/f/ge dBG|dcB ABc|
dBG cGE|DBD ~G3|~B3 ded|ABA ~G3||


Tune 580	Setting 13570

